X: 41693
T: Valentia
R: jig
M: 6/8
K: Fdorian
|:~E3 EGB|e2g fec|BeB cBG|FGF FEF|
GEE EGB|eBg fec|Bgc' bge|1 fgf eBG:|2 fgf egb||
c'3 c'bg|bge fec|Bee egb|c'bg fgb|
c'e'c' c'bg|bge fec|Beg bge|fgf egb|
~c'3 c'bg|bge fec|Bee egb|c'bg fgb|
c'bg bgf|ege cec|Beg bge|fgf eBG||

